X: 060345
T: Five Mile Chase
T: Four Hand Reel
S: M.Tubridy
Z: B.Black
R: reel
M: 4/4
L: 1/8
K: G
G2 BG dGBG | FADA FADA | G2 BG dGBG | egfa gedB |
G2 BG dGBG | FADA FADA | G2 BG dGBG | egfa g4 ||
gdBd edBd | gabg agef | gdBd edBd | egaf g3 f |
gabg efge | dedc BGBd | e2 eg edBd | egfa gedB ||
